svg/artifacthub.svg

<svg xmlns="http://www.w3.org/2000/svg" id="Layer_1" data-name="Layer 1" viewBox="24.79 9.73 309.67 340.38"><defs><style>.cls-1{fill:#fff;}.cls-2{fill:#417598;}</style></defs><path class="cls-1" d="M308.81737,81.55659,200.65776,19.84183a42.18582,42.18582,0,0,0-42.05691-.00394L50.33947,81.65a42.11259,42.11259,0,0,0-21.05762,36.41086V241.67857a42.48309,42.48309,0,0,0,21.15369,36.50386l108.15961,61.80511a42.07447,42.07447,0,0,0,42.0591.00176L308.913,278.17892a42.23506,42.23506,0,0,0,21.05762-36.41086V118.06088A42.48674,42.48674,0,0,0,308.81737,81.55659ZM169.735,320.51964,61.6763,258.72066a19.81671,19.81671,0,0,1-9.84537-17.04209V118.06088a19.76463,19.76463,0,0,1,9.73878-17.03332L169.84425,39.2979a19.718,19.718,0,0,1,9.79449-2.63067,18.77908,18.77908,0,0,1,9.8831,2.55434l108.14294,61.79634a19.81709,19.81709,0,0,1,9.84625,17.043V241.67857a19.76277,19.76277,0,0,1-9.73834,17.03244L189.499,320.53017a19.90983,19.90983,0,0,1-9.905,2.639A19.54866,19.54866,0,0,1,169.735,320.51964Z"/><path class="cls-2" d="M334.46254,118.04816a47.00031,47.00031,0,0,0-23.41237-40.3891L202.8967,15.94738a46.68479,46.68479,0,0,0-46.52952-.00658L48.1058,77.75293a46.61868,46.61868,0,0,0-23.31587,40.30795v123.63a46.99755,46.99755,0,0,0,23.4115,40.38867l108.16268,61.80687a46.56563,46.56563,0,0,0,46.52031.00175l108.26752-61.81476a46.74718,46.74718,0,0,0,23.3106-40.30532Zm-4.49192,123.7199A42.23506,42.23506,0,0,1,308.913,278.17892L200.65425,339.9893a42.07447,42.07447,0,0,1-42.0591-.00176L50.43554,278.18243a42.48309,42.48309,0,0,1-21.15369-36.50386V118.06088A42.11259,42.11259,0,0,1,50.33947,81.65L158.60085,19.83789a42.18582,42.18582,0,0,1,42.05691.00394L308.81737,81.55659a42.48674,42.48674,0,0,1,21.15325,36.50429Z"/><path class="cls-2" d="M297.77269,258.711a19.76277,19.76277,0,0,0,9.73834-17.03244V118.06088a19.81709,19.81709,0,0,0-9.84625-17.043L189.52184,39.22157a18.77908,18.77908,0,0,0-9.8831-2.55434,19.718,19.718,0,0,0-9.79449,2.63067L61.56971,101.02756a19.76463,19.76463,0,0,0-9.73878,17.03332V241.67857a19.81671,19.81671,0,0,0,9.84537,17.04209l108.05872,61.799a19.54866,19.54866,0,0,0,9.859,2.64953,19.90983,19.90983,0,0,0,9.905-2.639Z"/></svg>

<svg xmlns="http://www.w3.org/2000/svg" id="Layer_1" data-name="Layer 1" viewBox="24.79 9.73 309.67 340.38"><defs><style>.cls-2{fill:#417598}</style></defs><path d="m308.817 81.557-108.16-61.715a42.19 42.19 0 0 0-42.056-.004L50.339 81.65a42.11 42.11 0 0 0-21.057 36.41V241.68a42.48 42.48 0 0 0 21.154 36.503l108.16 61.806a42.07 42.07 0 0 0 42.058.001l108.259-61.81a42.24 42.24 0 0 0 21.058-36.41V118.06a42.49 42.49 0 0 0-21.154-36.504M169.735 320.52l-108.059-61.8a19.82 19.82 0 0 1-9.845-17.041V118.06a19.77 19.77 0 0 1 9.739-17.033l108.274-61.73a19.7 19.7 0 0 1 9.795-2.63 18.8 18.8 0 0 1 9.883 2.554l108.143 61.796a19.82 19.82 0 0 1 9.846 17.043v123.618a19.76 19.76 0 0 1-9.738 17.032l-108.274 61.82a19.9 19.9 0 0 1-9.905 2.638 19.55 19.55 0 0 1-9.859-2.65" style="fill:#fff"/><path d="M334.463 118.048A47 47 0 0 0 311.05 77.66L202.897 15.947a46.69 46.69 0 0 0-46.53-.006L48.106 77.753A46.62 46.62 0 0 0 24.79 118.06v123.63A47 47 0 0 0 48.2 282.08l108.163 61.806a46.57 46.57 0 0 0 46.52.002l108.268-61.815a46.75 46.75 0 0 0 23.31-40.305Zm-4.492 123.72a42.24 42.24 0 0 1-21.058 36.41L200.654 339.99a42.07 42.07 0 0 1-42.059-.001l-108.16-61.806a42.48 42.48 0 0 1-21.153-36.503V118.06A42.11 42.11 0 0 1 50.339 81.65l108.262-61.812a42.19 42.19 0 0 1 42.057.004l108.16 61.715a42.49 42.49 0 0 1 21.153 36.504Z" class="cls-2"/><path d="M297.773 258.711a19.76 19.76 0 0 0 9.738-17.032V118.06a19.82 19.82 0 0 0-9.846-17.043L189.522 39.222a18.8 18.8 0 0 0-9.883-2.555 19.7 19.7 0 0 0-9.795 2.63L61.57 101.028a19.77 19.77 0 0 0-9.74 17.034v123.618a19.82 19.82 0 0 0 9.846 17.042l108.059 61.799a19.55 19.55 0 0 0 9.859 2.65 19.9 19.9 0 0 0 9.905-2.64Z" class="cls-2"/></svg>
